X: 321
M: 2/2
L: 1/8
K: Gm
!segno!GABA |\
gaba |\
g2"2.F."d2 e2d2 | e2d2 gaba | g2d2 e2d2 | e2d2 b2d2 |\
e2d2 b2d2 | e2d2 b2d2 | e2d2 c2B2 | !+!A4 !segno!y |]

